src/assets/icons/weeks,fancy,51.svg

<svg width="48" height="48" viewBox="0 0 48 48" fill="none" xmlns="http://www.w3.org/2000/svg">
<rect opacity="0.2" x="4" y="6" width="40" height="40" rx="4" fill="black"/>
<path d="M17.215 41.2784C21.7491 41.2784 24.8315 38.3253 24.8216 34.2088C24.8315 30.3111 22.1071 27.5071 18.438 27.5071C16.6483 27.5071 15.1071 28.2528 14.3912 29.2571H14.2718L14.7988 24.1562H23.698V20.6364H11.2491L10.2846 31.375L14.1127 32.0611C14.7392 31.2159 15.9522 30.6889 17.1554 30.6889C19.2037 30.6989 20.6752 32.1804 20.6752 34.3182C20.6752 36.4361 19.2335 37.8977 17.215 37.8977C15.5048 37.8977 14.1227 36.8239 14.0233 35.2429H9.84712C9.92667 38.7628 12.9991 41.2784 17.215 41.2784ZM36.6838 20.6364H32.6369L27.5957 23.8281V27.6463L32.2591 24.723H32.3784V41H36.6838V20.6364Z" fill="black"/>
<g opacity="0.4">
<path d="M10 4C10 2.89543 10.8954 2 12 2C13.1046 2 14 2.89543 14 4V8C14 9.10457 13.1046 10 12 10C10.8954 10 10 9.10457 10 8V4Z" fill="black"/>
<path d="M34 4C34 2.89543 34.8954 2 36 2C37.1046 2 38 2.89543 38 4V8C38 9.10457 37.1046 10 36 10C34.8954 10 34 9.10457 34 8V4Z" fill="black"/>
</g>
<path fill-rule="evenodd" clip-rule="evenodd" d="M10 6.00869C7.52043 6.04456 6.11466 6.22849 5.17157 7.17157C4 8.34315 4 10.2288 4 14V16H44V14C44 10.2288 44 8.34315 42.8284 7.17157C41.8853 6.22849 40.4796 6.04456 38 6.00869V8C38 9.10457 37.1046 10 36 10C34.8954 10 34 9.10457 34 8V6H14V8C14 9.10457 13.1046 10 12 10C10.8954 10 10 9.10457 10 8V6.00869Z" fill="black"/>
</svg>

<svg xmlns="http://www.w3.org/2000/svg" width="48" height="48" fill="none" viewBox="0 0 48 48">
  <rect width="40" height="40" x="4" y="6" fill="#000" opacity=".2" rx="4"/>
  <path fill="#000" d="M17.215 41.278c4.534 0 7.616-2.953 7.607-7.07.01-3.897-2.715-6.7-6.384-6.7-1.79 0-3.33.745-4.047 1.75h-.12l.528-5.102h8.899v-3.52H11.249l-.964 10.739 3.828.686c.626-.845 1.84-1.372 3.042-1.372 2.049.01 3.52 1.491 3.52 3.63 0 2.117-1.442 3.579-3.46 3.579-1.71 0-3.092-1.074-3.192-2.655H9.847c.08 3.52 3.152 6.035 7.368 6.035zm19.469-20.642h-4.047l-5.041 3.192v3.818l4.663-2.923h.12V41h4.305V20.636z"/>
  <g opacity=".4">
    <path fill="#000" d="M10 4a2 2 0 114 0v4a2 2 0 11-4 0V4zM34 4a2 2 0 114 0v4a2 2 0 11-4 0V4z"/>
  </g>
  <path fill="#000" fill-rule="evenodd" d="M10 6.009c-2.48.036-3.885.22-4.828 1.163C4 8.343 4 10.229 4 14v2h40v-2c0-3.771 0-5.657-1.172-6.828-.943-.944-2.348-1.127-4.828-1.163V8a2 2 0 11-4 0V6H14v2a2 2 0 11-4 0V6.009z" clip-rule="evenodd"/>
</svg>
